packages/icon/src/svg/thumb-down.icon.svg

<svg viewBox="0 0 24 24" xmlns="http://www.w3.org/2000/svg">
<path fill-rule="evenodd" d="M14.6 15.5C14.8894 15.4277 15.3881 15.303 16.0204 15.2017C16.1137 15.6573 16.5168 16 17 16H21C21.5523 16 22 15.5523 22 15V4C22 3.44771 21.5523 3 21 3H17C16.5808 3 16.2219 3.25791 16.0732 3.62369C15.5529 3.46184 15.2618 3.36181 15.2 3.3L14.9 3.2C13.3 2.6 11.5 2 9 2H4.8C3.2 2 2 3.2 2 4.8V5.1C1.7 5.4 1 6.1 1 7.3C1 8 1.1 8.4 1.3 8.8C1.28964 8.83108 1.27821 8.8643 1.26603 8.89968C1.1607 9.20575 1 9.67274 1 10.3C1 10.9273 1.16059 11.3939 1.26592 11.7C1.2781 11.7354 1.28964 11.7689 1.3 11.8C1.28835 11.835 1.27534 11.8726 1.26145 11.9128C1.15611 12.2179 1 12.6699 1 13.2C1 14.7 2.3 16 3.8 16H5.83475C6.18385 16 6.43132 16.3516 6.35854 16.6931C6.2104 17.3881 6.15625 18.217 6.15625 19.1C6.15625 20.5 6.53807 21.2454 7.20312 21.9844C8.0015 22.8715 8.96875 23.0312 9.54688 23.0312C10.9688 23.0312 11.9219 22.9062 11.9219 21.4844C11.9219 21.4097 11.9215 21.3284 11.9211 21.2412C11.9179 20.5113 11.913 19.372 12.1 18.3C12.3 17.4 12.6289 16.7227 13.125 16.25C13.386 16.0013 13.9 15.7 14.6 15.5ZM4.8 4C4.3 4 4 4.3 4 4.8V5.2C4 5.90959 3.70206 6.20206 3.43144 6.46773C3.20626 6.68877 3 6.89125 3 7.3C3 7.79546 3.12122 8.01816 3.2302 8.21837C3.31918 8.38184 3.4 8.53031 3.4 8.8C3.4 9.07846 3.31384 9.24923 3.2215 9.43225C3.11487 9.64359 3 9.87128 3 10.3C3 10.7287 3.11487 10.9564 3.2215 11.1677C3.31384 11.3508 3.4 11.5215 3.4 11.8C3.4 12.1303 3.27878 12.4 3.1698 12.6425C3.08082 12.8404 3 13.0202 3 13.2C3 13.6 3.4 14 3.8 14H6C6.84375 14 7.48849 14.4401 7.84375 14.9375C8.19901 15.4349 8.35156 16 8.29688 16.7969C8.28969 16.9015 8.27707 17.0178 8.26223 17.1545C8.21874 17.5551 8.15625 18.1307 8.15625 19.1C8.15625 19.9666 8.41875 21.0234 9.71875 21.0234C9.86719 21.0234 10 20.9688 10 20.8C10 19.9 10 18.9 10.2 18C10.4 16.9 10.8 15.8 11.8 14.8C12.4 14.2 13.3 13.8 14.1 13.5C14.5504 13.3499 15.3387 13.1998 16 13.0919V5.7L14.5 5.2C14.45 5.2 14.4 5.175 14.35 5.15C14.3 5.125 14.25 5.1 14.2 5.1C12.7 4.5 11.3 4 9 4H4.8ZM18 14H20V5H18V14Z" />
</svg>

<svg aria-label="thumb down icon" viewBox="0 0 24 24"><path fill-rule="evenodd" d="M14.6 15.5c.29-.072.788-.197 1.42-.298A1 1 0 0017 16h4a1 1 0 001-1V4a1 1 0 00-1-1h-4a1 1 0 00-.927.624c-.52-.162-.811-.262-.873-.324l-.3-.1C13.3 2.6 11.5 2 9 2H4.8C3.2 2 2 3.2 2 4.8v.3c-.3.3-1 1-1 2.2 0 .7.1 1.1.3 1.5l-.034.1C1.161 9.206 1 9.673 1 10.3c0 .627.16 1.094.266 1.4l.034.1-.039.113C1.156 12.218 1 12.67 1 13.2 1 14.7 2.3 16 3.8 16h2.035c.349 0 .596.352.524.693-.149.695-.203 1.524-.203 2.407 0 1.4.382 2.145 1.047 2.884a3.11 3.11 0 002.344 1.047c1.422 0 2.375-.125 2.375-1.547v-.243c-.004-.73-.009-1.869.178-2.941.2-.9.529-1.577 1.025-2.05.261-.249.775-.55 1.475-.75zM4.8 4c-.5 0-.8.3-.8.8v.4c0 .71-.298 1.002-.569 1.268C3.206 6.688 3 6.89 3 7.3c0 .495.121.718.23.918.09.164.17.312.17.582 0 .278-.086.45-.179.632A1.692 1.692 0 003 10.3c0 .429.115.656.221.868.093.183.179.354.179.632 0 .33-.121.6-.23.842-.09.198-.17.378-.17.558 0 .4.4.8.8.8H6c.844 0 1.488.44 1.844.938.355.497.508 1.062.453 1.859-.007.104-.02.22-.035.357-.043.401-.106.977-.106 1.946 0 .867.263 1.923 1.563 1.923.148 0 .281-.054.281-.223 0-.9 0-1.9.2-2.8.2-1.1.6-2.2 1.6-3.2.6-.6 1.5-1 2.3-1.3.45-.15 1.239-.3 1.9-.408V5.7l-1.5-.5c-.05 0-.1-.025-.15-.05a.355.355 0 00-.15-.05C12.7 4.5 11.3 4 9 4H4.8zM18 14h2V5h-2v9z"/></svg>
